X: 85
T:Granes  March (1st primo). TLY.084
M:2/2
L:1/8
S:Wm.Tildesley,Swinton,Lancs.1860s.
R:March
O:England.
A:Lancashire.
N:triplests not marked in 6th. and 7th. bars, 9th, 10th, 13th., 14th. and
N:17th. bars in original
H:1860.
Z:vmp.Taz Tarry.
K:D
f4 e4| d>dd>d d2 A2| a4 g4| f>ff>f f2 d2| f>ff>a e>ee>g|!
 d>dd>f e2 A2| (3ded (3efe (3fgf (3efe|\
 (3aba (3gag (3fgf (3efe| d>dd>dd4:|!
|:(3fgf (3fgf (3efe (3efe| (3gag (3gag f4|\
f>ff>a e>ee>a| d>dd>f e2 A2|!
(3fgf (3fgf (3efe (3efe| (3gag (3gag f4| a8|\
 a8| (3aba (3gag (3fgf (3efe| d>dd>d d4:|]
